svg/UnitedNations-Flags/flag-pa.svg

<svg height="256" viewBox="0 0 36 24" width="256" xmlns="http://www.w3.org/2000/svg" xmlns:xlink="http://www.w3.org/1999/xlink"><defs><g id="0" transform="scale(3)"><g id="1"><path d="m0 0v1h.5l-.5-1" id="2" transform="matrix(.95106.30902-.30902.95106 0-1)"/><use height="24" transform="scale(-1 1)" width="36" xlink:href="#2"/></g><use height="24" transform="matrix(.30902.95106-.95106.30902 0 0)" width="36" xlink:href="#1"/><use height="24" transform="matrix(.30902-.95106.95106.30902 0 0)" width="36" xlink:href="#1"/><use height="24" transform="matrix(-.80902.58779-.58779-.80902 0 0)" width="36" xlink:href="#1"/><use height="24" transform="matrix(-.80902-.58779.58779-.80902 0 0)" width="36" xlink:href="#1"/></g></defs><path d="m0 0h36v24h-36v-24" fill="#fff"/><g fill="#0067c6"><use height="24" width="36" x="9" xlink:href="#0" y="6"/><path d="m0 12h18v12h-18v-12"/></g><g fill="#d21034"><path d="m18 0h18v12h-18v-12"/><use height="24" width="36" x="27" xlink:href="#0" y="18"/></g></svg>

<?xml version="1.0" encoding="UTF-8" standalone="no"?>
<svg height="256" id="svg2734" inkscape:output_extension="org.inkscape.output.svg.inkscape" inkscape:version="0.46" sodipodi:docname="Flag_of_Panama.svg" sodipodi:version="0.32" version="1.0" viewBox="0 0 36 24" width="256" xmlns="http://www.w3.org/2000/svg" xmlns:cc="http://creativecommons.org/ns#" xmlns:dc="http://purl.org/dc/elements/1.1/" xmlns:inkscape="http://www.inkscape.org/namespaces/inkscape" xmlns:rdf="http://www.w3.org/1999/02/22-rdf-syntax-ns#" xmlns:sodipodi="http://sodipodi.sourceforge.net/DTD/sodipodi-0.dtd" xmlns:svg="http://www.w3.org/2000/svg" xmlns:xlink="http://www.w3.org/1999/xlink">
  <metadata>
    <rdf:RDF xmlns:cc="http://web.resource.org/cc/" xmlns:dc="http://purl.org/dc/elements/1.1/" xmlns:rdf="http://www.w3.org/1999/02/22-rdf-syntax-ns#">
      <cc:Work rdf:about="">
        <dc:title></dc:title>
        <dc:description></dc:description>
        <dc:subject>
          <rdf:Bag>
            <rdf:li>unsorted</rdf:li>
          </rdf:Bag>
        </dc:subject>
        <dc:publisher>
          <cc:Agent rdf:about="http://www.openclipart.org/">
            <dc:title>Open Clip Art Library, Source: Wikimedia Commons, Source: Wikimedia Commons, Source: Wikimedia Commons, Source: Wikimedia Commons</dc:title>
          </cc:Agent>
        </dc:publisher>
        <dc:creator>
          <cc:Agent>
            <dc:title></dc:title>
          </cc:Agent>
        </dc:creator>
        <dc:rights>
          <cc:Agent>
            <dc:title></dc:title>
          </cc:Agent>
        </dc:rights>
        <dc:date></dc:date>
        <dc:format>image/svg+xml</dc:format>
        <dc:type rdf:resource="http://purl.org/dc/dcmitype/StillImage"/>
        <cc:license rdf:resource="http://en.wikipedia.org/wiki/Public_domain"/>
        <dc:language>en</dc:language>
      </cc:Work>
    </rdf:RDF>
  </metadata>
  <sodipodi:namedview bordercolor="#666666" borderopacity="1.0" gridtolerance="10.0" guidetolerance="10.0" id="base" inkscape:current-layer="svg2734" inkscape:cx="225" inkscape:cy="150" inkscape:pageopacity="0.0" inkscape:pageshadow="2" inkscape:window-height="723" inkscape:window-width="943" inkscape:window-x="82" inkscape:window-y="196" inkscape:zoom="1.2422222" objecttolerance="10.0" pagecolor="#ffffff" showgrid="false"/>
  <desc id="desc2736">Flag of Panama</desc>
  <defs id="defs2738">
    <inkscape:perspective id="perspective2770" inkscape:persp3d-origin="225 : 100 : 1" inkscape:vp_x="0 : 150 : 1" inkscape:vp_y="0 : 1000 : 0" inkscape:vp_z="450 : 150 : 1" sodipodi:type="inkscape:persp3d"/>
    <g id="star" transform="scale(3,3)">
      <g id="c">
        <path d="M 0,0 L 0,1 L 0.5,1 L 0,0 z" id="t" transform="matrix(0.9510565,0.309017,-0.309017,0.9510565,0,-1)"/>
        <use height="24" id="use2743" transform="scale(-1,1)" width="36" x="0" xlink:href="#t" y="0"/>
      </g>
      <use height="24" id="use2745" transform="matrix(0.309017,0.9510565,-0.9510565,0.309017,0,0)" width="36" x="0" xlink:href="#c" y="0"/>
      <use height="24" id="use2747" transform="matrix(0.309017,-0.9510565,0.9510565,0.309017,0,0)" width="36" x="0" xlink:href="#c" y="0"/>
      <use height="24" id="use2749" transform="matrix(-0.809017,0.5877853,-0.5877853,-0.809017,0,0)" width="36" x="0" xlink:href="#c" y="0"/>
      <use height="24" id="use2751" transform="matrix(-0.809017,-0.5877853,0.5877853,-0.809017,0,0)" width="36" x="0" xlink:href="#c" y="0"/>
    </g>
  </defs>
  <path d="M 0,0 L 36,0 L 36,24 L 0,24 L 0,0 z" id="path2753" style="fill:#ffffff"/>
  <g id="g2755" style="fill:#0067c6">
    <use height="24" id="use2757" width="36" x="9" xlink:href="#star" y="6"/>
    <path d="M 0,12 L 18,12 L 18,24 L 0,24 L 0,12 z" id="path2759"/>
  </g>
  <g id="g2761" style="fill:#d21034">
    <path d="M 18,0 L 36,0 L 36,12 L 18,12 L 18,0 z" id="path2763"/>
    <use height="24" id="use2765" width="36" x="27" xlink:href="#star" y="18"/>
  </g>
</svg>
